X: 1
T: Gan Ainm
M: 4/4
L: 1/8
R: reel
K: Gdor
GA |BGAB GFDC |DGG^F G=FDC| B,DG[Bd] [Bf]dcB |AFFE FAdc |
BGGF GFD2 |CD ~G2 ~G3A |BD (3DDD AD (3DDD |dcBA G3A |
BGAB GFDC |DGAG GFDC| B,DGd fdcB |AFFE FAdc |
BGGA GFDC |DG~G2 ~G3A|BG~G2 AG~G2| dcBA G3A ||
BGAB dcBA |Gggf gfdc |Bddc BAGF |DGGF G3A |
(3Bcd fd gfdc |BdcB AFF2 |a2ag fc~c2 |dcBA ~G3A |
BGAB dcBA |Gggf d2dc |BGdc BAGF |DGGF G3A |
(3Bcd fd gfdc |BdcB AFF2 |a2ag fc~c2 |dcBA ~G3A ||
